icon-svg/seat.svg

<svg xmlns="http://www.w3.org/2000/svg" fill="#44739e" viewBox="0 0 24 24"><path d="M5.666 18.171q-1.362-.114-2.724-.225a.4.4 0 0 1-.227-.063.239.239 0 0 1-.054-.229c.019-.1.134-.137.225-.132 1.115-.007 2.23 0 3.345-.006v-.524c-1.1-.005-2.194 0-3.291 0a1.32 1.32 0 0 0-.622.1.567.567 0 0 0-.318.536 1.36 1.36 0 0 0 .043.48.553.553 0 0 0 .326.313 2.87 2.87 0 0 0 .737.111c.8.067 1.593.132 2.389.2a.3.3 0 0 1 .245.1.291.291 0 0 1-.028.3.3.3 0 0 1-.219.06h-3.37a5 5 0 0 0 0 .52c1.2.008 2.393 0 3.59 0a.75.75 0 0 0 .522-.171.79.79 0 0 0 .206-.578.767.767 0 0 0-.175-.579.975.975 0 0 0-.6-.213m5.834-.642a.47.47 0 0 0 .135-.009v-.524l-.05-.006H7.376v1.762a1.022 1.022 0 0 0 .168.64.9.9 0 0 0 .673.327h2.164c.419 0 .839.008 1.256-.007v-.516H8.571a.442.442 0 0 1-.4-.157.94.94 0 0 1-.064-.449h3.178a1.36 1.36 0 0 0 .211-.009v-.512c-.3-.018-.6 0-.9-.008H8.105v-.535c1.134.004 2.265.001 3.395.003m6.06-7.168Q11.857 9.3 6.154 8.24v1.4q3.4.585 6.8 1.161c.564.093 1.125.2 1.689.283.005.051-.043.083-.073.117a1.047 1.047 0 0 1-.767.23c-1.253-.012-2.5-.012-3.758-.032-1.3-.029-2.594-.075-3.888-.157.038.728.066 1.458.12 2.185a1.15 1.15 0 0 0 .08.395.456.456 0 0 0 .264.178 2.88 2.88 0 0 0 .6.073 66.2 66.2 0 0 0 7.543.122 13.3 13.3 0 0 0 1.75-.148 1.456 1.456 0 0 0 1-.617 2.38 2.38 0 0 0 .253-1.127c.023-.624.035-1.248.056-1.872l-.01-.022a2.1 2.1 0 0 0-.253-.048m4.433 6.628h-4.134v.534h1.322c.121 0 .242.007.363-.008.042.062.009.144.017.215 0 .668-.008 1.336.007 2h.722v-2.211h1.706c.004-.17.004-.35-.003-.53m-8.986.278a1.03 1.03 0 0 0-.253.744c.005.576 0 1.153.005 1.729h.725c.009-.269-.013-.541.011-.809.916.01 1.833-.008 2.748.009v.8h.725v-2.749h-3.192a1.083 1.083 0 0 0-.769.276m3.231.259v.864h-2.757v-.251a.93.93 0 0 1 .068-.408.423.423 0 0 1 .39-.2c.768-.004 1.534.001 2.299-.005M9.256 6.806a.8.8 0 0 1 .575-.292c.876-.043 1.754-.034 2.63-.037 1.693 0 3.384.075 5.074.163a1.94 1.94 0 0 0 .285.006c-.049-.658-.064-1.318-.117-1.975a1.09 1.09 0 0 0-.083-.4.513.513 0 0 0-.328-.189 5.7 5.7 0 0 0-.691-.067c-2.191-.14-4.389-.217-6.583-.14-.707.025-1.418.051-2.118.116a2.032 2.032 0 0 0-1.259.467 1.33 1.33 0 0 0-.351.691 6.1 6.1 0 0 0-.089 1.1c-.01.463-.029.925-.035 1.387 2.656.453 5.309.917 7.963 1.374 1.234.211 2.467.432 3.7.636V8.397c-2.2-.41-4.393-.812-6.588-1.223-.661-.124-1.322-.251-1.985-.368"/></svg>

<?xml version="1.0" encoding="UTF-8"?>
<svg width="24px" fill="#44739e" height="24px" viewBox="0 0 24 24" version="1.1" xmlns="http://www.w3.org/2000/svg" xmlns:xlink="http://www.w3.org/1999/xlink">
            <path d="M 5.666,18.171 Q 4.304,18.057 2.942,17.946 A 0.4,0.4 0 0 1 2.715,17.883 0.239,0.239 0 0 1 2.661,17.654 c 0.019,-0.1 0.134,-0.137 0.225,-0.132 1.115,-0.007 2.23,0 3.345,-0.006 0,-0.174 0,-0.349 0,-0.524 -1.1,-0.005 -2.194,0 -3.291,0 a 1.317,1.317 0 0 0 -0.622,0.1 0.567,0.567 0 0 0 -0.318,0.536 1.357,1.357 0 0 0 0.043,0.48 0.553,0.553 0 0 0 0.326,0.313 2.871,2.871 0 0 0 0.737,0.111 c 0.8,0.067 1.593,0.132 2.389,0.2 a 0.3,0.3 0 0 1 0.245,0.1 0.291,0.291 0 0 1 -0.028,0.3 0.3,0.3 0 0 1 -0.219,0.06 c -1.123,0 -2.247,0 -3.37,0 a 5.011,5.011 0 0 0 0,0.52 c 1.2,0.008 2.393,0 3.59,0 A 0.749,0.749 0 0 0 6.235,19.541 0.789,0.789 0 0 0 6.441,18.963 0.767,0.767 0 0 0 6.266,18.384 0.975,0.975 0 0 0 5.666,18.171 Z M 11.5,17.529 a 0.47,0.47 0 0 0 0.135,-0.009 c 0,-0.175 0,-0.349 0,-0.524 l -0.05,-0.006 q -2.1,0 -4.209,0 c 0,0.587 0,1.175 0,1.762 a 1.022,1.022 0 0 0 0.168,0.64 0.9,0.9 0 0 0 0.673,0.327 c 0.721,0 1.442,0 2.164,0 0.419,0 0.839,0.008 1.256,-0.007 0,-0.172 0,-0.344 0,-0.516 q -1.533,0 -3.066,0 A 0.442,0.442 0 0 1 8.171,19.039 0.937,0.937 0 0 1 8.107,18.59 h 3.178 a 1.355,1.355 0 0 0 0.211,-0.009 c 0,-0.171 0,-0.342 0,-0.512 -0.3,-0.018 -0.6,0 -0.9,-0.008 -0.83,0 -1.661,0 -2.491,0 0,-0.178 0,-0.357 0,-0.535 1.134,0.004 2.265,0.001 3.395,0.003 z m 6.06,-7.168 Q 11.857,9.3 6.154,8.24 c 0,0.468 0,0.937 0,1.4 q 3.4,0.585 6.8,1.161 c 0.564,0.093 1.125,0.2 1.689,0.283 0.005,0.051 -0.043,0.083 -0.073,0.117 a 1.047,1.047 0 0 1 -0.767,0.23 c -1.253,-0.012 -2.5,-0.012 -3.758,-0.032 -1.3,-0.029 -2.594,-0.075 -3.888,-0.157 0.038,0.728 0.066,1.458 0.12,2.185 a 1.149,1.149 0 0 0 0.08,0.395 0.456,0.456 0 0 0 0.264,0.178 2.879,2.879 0 0 0 0.6,0.073 66.147,66.147 0 0 0 7.543,0.122 13.312,13.312 0 0 0 1.75,-0.148 1.456,1.456 0 0 0 1,-0.617 2.381,2.381 0 0 0 0.253,-1.127 c 0.023,-0.624 0.035,-1.248 0.056,-1.872 l -0.01,-0.022 A 2.124,2.124 0 0 0 17.56,10.361 Z m 4.433,6.628 c -1.378,0 -2.756,0 -4.134,0 0,0.178 0,0.356 0,0.534 0.441,0 0.882,0 1.322,0 0.121,0 0.242,0.007 0.363,-0.008 0.042,0.062 0.009,0.144 0.017,0.215 0,0.668 -0.008,1.336 0.007,2 h 0.722 q 0,-1.105 0,-2.211 c 0.569,0 1.137,0 1.706,0 C 22,17.349 22,17.169 21.993,16.989 Z m -8.986,0.278 a 1.031,1.031 0 0 0 -0.253,0.744 c 0.005,0.576 0,1.153 0.005,1.729 h 0.725 c 0.009,-0.269 -0.013,-0.541 0.011,-0.809 0.916,0.01 1.833,-0.008 2.748,0.009 0,0.267 0,0.533 0,0.8 h 0.725 c 0,-0.917 0,-1.833 0,-2.749 q -1.6,0 -3.192,0 a 1.083,1.083 0 0 0 -0.769,0.276 z m 3.231,0.259 c 0,0.072 0,0.144 0,0.217 0,0.215 0,0.431 0,0.647 v 0 c -0.919,0 -1.839,0 -2.757,0 0,-0.027 0,-0.055 0,-0.083 0,-0.055 0,-0.112 0,-0.168 a 0.932,0.932 0 0 1 0.068,-0.408 0.423,0.423 0 0 1 0.39,-0.2 c 0.768,-0.004 1.534,0.001 2.299,-0.005 z M 9.256,6.806 A 0.8,0.8 0 0 1 9.831,6.514 c 0.876,-0.043 1.754,-0.034 2.63,-0.037 1.693,0 3.384,0.075 5.074,0.163 A 1.938,1.938 0 0 0 17.82,6.646 C 17.771,5.988 17.756,5.328 17.703,4.671 A 1.093,1.093 0 0 0 17.62,4.271 0.513,0.513 0 0 0 17.292,4.082 5.711,5.711 0 0 0 16.601,4.015 C 14.41,3.875 12.212,3.798 10.018,3.875 9.311,3.9 8.6,3.926 7.9,3.991 A 2.032,2.032 0 0 0 6.641,4.458 1.33,1.33 0 0 0 6.29,5.149 6.087,6.087 0 0 0 6.201,6.249 c -0.01,0.463 -0.029,0.925 -0.035,1.387 2.656,0.453 5.309,0.917 7.963,1.374 1.234,0.211 2.467,0.432 3.7,0.636 q 0,-0.624 0,-1.249 C 15.629,7.987 13.436,7.585 11.241,7.174 10.58,7.05 9.919,6.923 9.256,6.806 Z"/>
 
</svg>
